X: 1184
T: The Peeler's Jacket
M:C|
L:1/8
R:Reel
B:O'Neill's 1184
N:Collected by F. O'Neill
Z:Transcribed by Trish O'Nei
K:G
G2(BG) DGBG|FGABc2(Bc)|(dg)(gfd2)(eg)|(f<d)cA (B<G)AF|
G2(BG) DGBG|FGABc2(Bc)|dggfd2(eg)|(f<d)cA (B<G) "end"Gz||
gagfd2(ef)|gfga bgaf|gagfd2(eg)|(f<d)cA BGGz|
gagfd2(ef)|gfga bgaf|gbag fdeg|(f<d)cA (B<G)AF||


